src/img/projects/magento.svg

<?xml version="1.0" encoding="UTF-8"?>
<svg width="90px" height="90px" viewBox="0 0 90 90" version="1.1" xmlns="http://www.w3.org/2000/svg" xmlns:xlink="http://www.w3.org/1999/xlink">
    <!-- Generator: Sketch 41.2 (35397) - http://www.bohemiancoding.com/sketch -->
    <title>community/card/logo/magento</title>
    <desc>Created with Sketch.</desc>
    <defs></defs>
    <g id="Symbols" stroke="none" stroke-width="1" fill="none" fill-rule="evenodd">
        <g id="community/card/logo/magento" fill="#FFFFFF">
            <path d="M68.2419295,31.9839716 L68.2419295,59.9510258 L61.3498459,63.9468272 L61.3498459,35.979773 L44.1200794,25.9907139 L26.8911983,35.9788841 L26.8911983,63.9468272 L20,59.9510258 L20,31.9839716 L44.1200794,18 L68.2419295,31.9839716 Z M44.12185,73.9358863 L33.783282,67.9417397 L33.783282,39.9746855 L40.6744803,35.9788841 L40.6744803,63.9468272 L44.1200794,66.0482898 L47.5674492,63.9468272 L47.5674492,35.979773 L54.4595328,39.9746855 L54.4595328,67.9417397 L44.12185,73.9358863 Z" id="community/icon-magento"></path>
        </g>
    </g>
</svg>

<svg width="90" height="90" viewBox="0 0 90 90" xmlns="http://www.w3.org/2000/svg"><title>community/card/logo/magento</title><path d="M68.242 31.984v27.967l-6.892 3.996V35.98l-17.23-9.99-17.229 9.989v27.968L20 59.95V31.984L44.12 18l24.122 13.984zm-24.12 41.952l-10.339-5.994V39.975l6.891-3.996v27.968l3.446 2.101 3.447-2.101V35.98l6.893 3.995v27.967l-10.338 5.994z" fill="#FFF" fill-rule="evenodd"/></svg>
